X:91
T:Lord Ullin's Daughter
M:3/4
L:1/8
R:waltz
N:Learned from Session
Z:Michael Abraham Shulman
K:G
|:D3E G2|A3G A2|B3A G2|A3G A2|B3A G2|E4 D2|D6-|D6:|
A3B c2|d3e d2|d3c B2|A3G E2|A3B c2|d3e d2|c6|B2 A2 G2|
A3B c2|d3e d2|d3c B2|A3G A2|B3A G2|E4 D2|D6-|D6||
